X: 97
T: The Ashplant
B: begged borrowed and stolen
B: ralph
B: steve tunes
M:4/4
R: reel
Q: 1/4=140
K:G
V:1 
|:"Em"BE E2 BAGA|BEE2 "D"G3 A|"Em"BE E2 BAGd|"D"gedB A2 GA:|
 |:"Em"B2 eB gBeB|B2 ed "D"BAGA|1 "Em"B2 eB gBga|"D"gedB A2 GA:|2 "Em"Bd ef g2 ga|"D"gedB A2 GA||
% abcbook-tune_id 627e2b1f5daaf2959a302024


% abcbook-boost 0
% abcbook-tablature 
% abcbook-transpose 
% abcbook-lastupdated 1652725431141
% abcbook-soundfonts 
% abcbook-repeats 3


